src/images/header/phone-black-icon.svg

<svg fill="none" height="18" viewBox="0 0 19 18" width="19" xmlns="http://www.w3.org/2000/svg"><path d="m3.50056 5.77163c0 .52762.1935 1.10756.43932 1.72293.24581.61538.5625 1.19532.80887 1.63463.66825 1.16041 1.52944 2.30291 2.51381 3.25181.98438.9489 2.14481 1.7404 3.44534 2.2151.756.2987 1.512.6328 2.3557.6328.4219 0 1.0198-.158 1.5643-.387.5277-.2283 1.0018-.5799 1.1779-1.0018.0703-.158.1581-.369.2109-.6153.0529-.2284.0878-.4574.0878-.6154 0-.0878 0-.1761-.0174-.1935-.0529-.1058-.1761-.1935-.3167-.2813-.3167-.158-.369-.2109-.8438-.4922-.4922-.2812-1.0018-.5979-1.4417-.8263-.2109-.1232-.3515-.176-.4044-.176-.2813 0-.6328.387-.9315.8088-.3167.4219-.6682.8089-.9141.8089-.1231 0-.2463-.0529-.387-.1406-.1406-.0878-.2812-.1581-.369-.2109-1.54684-.8792-2.58409-1.91592-3.46271-3.44536-.10575-.17606-.35157-.54506-.35157-.73856 0-.22838.31669-.49219.63282-.77344.29869-.26381.61537-.57994.61537-.96694 0-.05287-.03543-.21094-.10575-.43931-.15806-.45731-.369-.98438-.54506-1.494-.08775-.24638-.15806-.42188-.17606-.50963-.03544-.05287-.05288-.12318-.07032-.21093-.01743-.08775-.05287-.15807-.07031-.22838-.05287-.15806-.14062-.28125-.22837-.35156-.08775-.03544-.29869-.08775-.50963-.10575-.21094 0-.45731-.01744-.5625-.01744-.05287 0-.12318 0-.1935.01744h-.22837c-.5625.24637-.96694.73856-1.26563 1.3185-.28125.57994-.45731 1.23075-.45731 1.81069z" fill="#080907"/></svg>

<svg width="19" height="18" viewBox="0 0 19 18" fill="none" xmlns="http://www.w3.org/2000/svg">
<g id="phone-svgrepo-com (2) 1">
<path id="Vector" d="M3.50056 5.77163C3.50056 6.29925 3.69406 6.87919 3.93988 7.49456C4.18569 8.10994 4.50238 8.68988 4.74875 9.12919C5.417 10.2896 6.27819 11.4321 7.26256 12.381C8.24694 13.3299 9.40737 14.1214 10.7079 14.5961C11.4639 14.8948 12.2199 15.2289 13.0636 15.2289C13.4855 15.2289 14.0834 15.0709 14.6279 14.8419C15.1556 14.6136 15.6297 14.262 15.8058 13.8401C15.8761 13.6821 15.9639 13.4711 16.0167 13.2248C16.0696 12.9964 16.1045 12.7674 16.1045 12.6094C16.1045 12.5216 16.1045 12.4333 16.0871 12.4159C16.0342 12.3101 15.911 12.2224 15.7704 12.1346C15.4537 11.9766 15.4014 11.9237 14.9266 11.6424C14.4344 11.3612 13.9248 11.0445 13.4849 10.8161C13.274 10.6929 13.1334 10.6401 13.0805 10.6401C12.7992 10.6401 12.4477 11.0271 12.149 11.4489C11.8323 11.8708 11.4808 12.2578 11.2349 12.2578C11.1118 12.2578 10.9886 12.2049 10.8479 12.1172C10.7073 12.0294 10.5667 11.9591 10.4789 11.9063C8.93206 11.0271 7.89481 9.99038 7.01619 8.46094C6.91044 8.28488 6.66462 7.91588 6.66462 7.72238C6.66462 7.494 6.98131 7.23019 7.29744 6.94894C7.59613 6.68513 7.91281 6.369 7.91281 5.982C7.91281 5.92913 7.87738 5.77106 7.80706 5.54269C7.649 5.08538 7.43806 4.55831 7.262 4.04869C7.17425 3.80231 7.10394 3.62681 7.08594 3.53906C7.0505 3.48619 7.03306 3.41588 7.01562 3.32813C6.99819 3.24038 6.96275 3.17006 6.94531 3.09975C6.89244 2.94169 6.80469 2.8185 6.71694 2.74819C6.62919 2.71275 6.41825 2.66044 6.20731 2.64244C5.99637 2.64244 5.75 2.625 5.64481 2.625C5.59194 2.625 5.52163 2.625 5.45131 2.64244H5.22294C4.66044 2.88881 4.256 3.381 3.95731 3.96094C3.67606 4.54088 3.5 5.19169 3.5 5.77163H3.50056Z" fill="#080907"/>
</g>
</svg>
